X: 1
T: den Toppede H\one #3
T: the Crested Hen
O: Denmark
M: 6/8
L: 1/8
B: Danske Folkedansemelodier v.2 #542
Z: 2009 John Chambers <jc@trillian.mit.edu>
K: A
E \
| "A"E2A A2A | ABc "E7"dcB | "A"A2A A2A | AGA "E7"BGE \
| "A"E2A A2A | ABc "D"d3 | "A"cBA "E7"GFG | B3 "A"A2 :|
|: z \
| "A"a3 A3 | cBc "D"dcd | "Bm"f3 "E7"B3 | "A"cBc "D"dcd \
| "E7"efg "A"a3 | "D"fdf "(A)"a3 | "E"gfe "B7"^def | "E"e3 e2 :|
|: z \
| "A"a3 a3 | a2e c2A | a3 a3 | "E7"gab gab \
| "A"a3 a3 | a2e c2A | "D"f2e "E7"d2G | B3 "A"A2 :|
